svg/color/0xbtc.svg

<?xml version="1.0" encoding="UTF-8" ?>
<!DOCTYPE svg PUBLIC "-//W3C//DTD SVG 1.1//EN" "http://www.w3.org/Graphics/SVG/1.1/DTD/svg11.dtd">
<svg width="250pt" height="250pt" viewBox="0 0 250 250" version="1.1" xmlns="http://www.w3.org/2000/svg">
<g id="#ffffffff">
<path fill="#ffffff" opacity="1.00" d=" M 0.00 0.00 L 250.00 0.00 L 250.00 118.67 C 248.43 90.91 237.60 63.69 219.13 42.85 C 200.22 21.07 173.48 6.20 144.95 1.77 C 113.83 -3.45 80.85 3.98 54.85 21.82 C 30.85 38.13 12.77 62.98 4.95 90.95 C -2.64 117.35 -1.09 146.23 9.20 171.69 C 20.68 200.45 43.29 224.54 71.26 237.82 C 86.02 244.98 102.23 248.84 118.56 250.00 L 0.00 250.00 L 0.00 0.00 Z" />
<path fill="#ffffff" opacity="1.00" d=" M 108.54 6.86 C 135.26 3.07 163.23 8.67 186.36 22.60 C 208.69 35.88 226.43 56.67 236.03 80.81 C 245.83 105.17 247.19 132.80 239.94 158.04 C 232.50 184.31 215.64 207.73 193.20 223.25 C 173.08 237.29 148.54 244.85 124.01 244.52 C 96.81 244.40 69.79 234.50 48.92 217.04 C 25.24 197.59 9.59 168.64 6.45 138.14 C 3.76 114.39 8.52 89.85 19.83 68.79 C 37.36 35.62 71.32 11.80 108.54 6.86 M 118.30 12.38 C 92.44 13.79 67.23 24.61 48.34 42.32 C 29.77 59.40 17.23 82.90 13.47 107.86 C 10.24 129.17 13.03 151.42 21.91 171.09 C 33.13 196.46 54.06 217.33 79.45 228.49 C 97.12 236.29 116.83 239.56 136.05 237.57 C 161.91 235.23 186.74 223.40 205.03 205.00 C 224.38 185.76 236.45 159.28 237.86 132.00 C 240.50 95.80 223.92 59.02 195.39 36.65 C 173.85 19.40 145.84 10.58 118.30 12.38 Z" />
<path fill="#ffffff" opacity="1.00" d=" M 147.26 40.38 C 149.91 37.98 151.42 41.76 152.28 43.77 C 158.86 59.93 163.37 76.84 168.09 93.61 C 171.83 107.92 175.68 122.23 177.95 136.86 C 178.23 139.32 178.93 142.13 177.26 144.27 C 172.62 150.83 166.68 156.34 161.07 162.05 C 146.59 176.31 131.50 189.96 115.67 202.70 C 111.88 205.53 108.26 208.76 103.90 210.68 C 102.11 211.39 101.52 209.17 100.85 208.04 C 96.60 198.69 93.77 188.77 90.70 178.99 C 85.01 159.69 79.66 140.27 75.69 120.53 C 75.01 116.22 73.70 111.75 74.56 107.39 C 77.54 102.33 81.86 98.22 85.88 93.99 C 101.28 78.32 117.56 63.51 134.54 49.58 C 138.65 46.34 142.70 42.97 147.26 40.38 Z" />
<path fill="#ffffff" opacity="1.00" d=" M 210.42 216.41 C 234.11 194.41 248.61 162.96 250.00 130.66 L 250.00 250.00 L 132.06 250.00 C 161.01 248.15 189.26 236.33 210.42 216.41 Z" />
</g>
<g id="#ff7f00ff">
<path fill="#ff7f00" opacity="1.00" d=" M 54.85 21.82 C 80.85 3.98 113.83 -3.45 144.95 1.77 C 173.48 6.20 200.22 21.07 219.13 42.85 C 237.60 63.69 248.43 90.91 250.00 118.67 L 250.00 130.66 C 248.61 162.96 234.11 194.41 210.42 216.41 C 189.26 236.33 161.01 248.15 132.06 250.00 L 118.56 250.00 C 102.23 248.84 86.02 244.98 71.26 237.82 C 43.29 224.54 20.68 200.45 9.20 171.69 C -1.09 146.23 -2.64 117.35 4.95 90.95 C 12.77 62.98 30.85 38.13 54.85 21.82 M 108.54 6.86 C 71.32 11.80 37.36 35.62 19.83 68.79 C 8.52 89.85 3.76 114.39 6.45 138.14 C 9.59 168.64 25.24 197.59 48.92 217.04 C 69.79 234.50 96.81 244.40 124.01 244.52 C 148.54 244.85 173.08 237.29 193.20 223.25 C 215.64 207.73 232.50 184.31 239.94 158.04 C 247.19 132.80 245.83 105.17 236.03 80.81 C 226.43 56.67 208.69 35.88 186.36 22.60 C 163.23 8.67 135.26 3.07 108.54 6.86 Z" />
<path fill="#ff7f00" opacity="1.00" d=" M 118.30 12.38 C 145.84 10.58 173.85 19.40 195.39 36.65 C 223.92 59.02 240.50 95.80 237.86 132.00 C 236.45 159.28 224.38 185.76 205.03 205.00 C 186.74 223.40 161.91 235.23 136.05 237.57 C 116.83 239.56 97.12 236.29 79.45 228.49 C 54.06 217.33 33.13 196.46 21.91 171.09 C 13.03 151.42 10.24 129.17 13.47 107.86 C 17.23 82.90 29.77 59.40 48.34 42.32 C 67.23 24.61 92.44 13.79 118.30 12.38 M 147.26 40.38 C 142.70 42.97 138.65 46.34 134.54 49.58 C 117.56 63.51 101.28 78.32 85.88 93.99 C 81.86 98.22 77.54 102.33 74.56 107.39 C 73.70 111.75 75.01 116.22 75.69 120.53 C 79.66 140.27 85.01 159.69 90.70 178.99 C 93.77 188.77 96.60 198.69 100.85 208.04 C 101.52 209.17 102.11 211.39 103.90 210.68 C 108.26 208.76 111.88 205.53 115.67 202.70 C 131.50 189.96 146.59 176.31 161.07 162.05 C 166.68 156.34 172.62 150.83 177.26 144.27 C 178.93 142.13 178.23 139.32 177.95 136.86 C 175.68 122.23 171.83 107.92 168.09 93.61 C 163.37 76.84 158.86 59.93 152.28 43.77 C 151.42 41.76 149.91 37.98 147.26 40.38 Z" />
</g>
</svg>

<?xml version="1.0" encoding="utf-8"?>
<!-- Generator: Adobe Illustrator 26.0.3, SVG Export Plug-In . SVG Version: 6.00 Build 0)  -->
<svg version="1.1" id="Layer_1" xmlns="http://www.w3.org/2000/svg" xmlns:xlink="http://www.w3.org/1999/xlink" x="0px" y="0px"
	 viewBox="0 0 250 250" style="enable-background:new 0 0 250 250;" xml:space="preserve">
<style type="text/css">
	.st0{fill:#FFFFFF;}
	.st1{fill:#FF7F00;}
</style>
<g id="_x23_ffffffff">
	<path class="st0" d="M108.5,6.9c26.7-3.8,54.7,1.8,77.8,15.7c22.3,13.3,40.1,34.1,49.7,58.2c9.8,24.4,11.2,52,3.9,77.2
		c-7.4,26.3-24.3,49.7-46.7,65.2c-20.1,14-44.7,21.6-69.2,21.3c-27.2-0.1-54.2-10-75.1-27.5c-23.7-19.4-39.3-48.4-42.5-78.9
		c-2.7-23.8,2.1-48.3,13.4-69.3C37.4,35.6,71.3,11.8,108.5,6.9 M118.3,12.4c-25.9,1.4-51.1,12.2-70,29.9
		c-18.6,17.1-31.1,40.6-34.9,65.5c-3.2,21.3-0.4,43.6,8.4,63.2c11.2,25.4,32.2,46.2,57.5,57.4c17.7,7.8,37.4,11.1,56.6,9.1
		c25.9-2.3,50.7-14.2,69-32.6c19.4-19.2,31.4-45.7,32.8-73c2.6-36.2-13.9-73-42.5-95.3C173.9,19.4,145.8,10.6,118.3,12.4z"/>
	<path class="st0" d="M147.3,40.4c2.7-2.4,4.2,1.4,5,3.4c6.6,16.2,11.1,33.1,15.8,49.8c3.7,14.3,7.6,28.6,9.9,43.2
		c0.3,2.5,1,5.3-0.7,7.4c-4.6,6.6-10.6,12.1-16.2,17.8c-14.5,14.3-29.6,27.9-45.4,40.6c-3.8,2.8-7.4,6.1-11.8,8
		c-1.8,0.7-2.4-1.5-3.1-2.6c-4.2-9.3-7.1-19.3-10.2-29c-5.7-19.3-11-38.7-15-58.5c-0.7-4.3-2-8.8-1.1-13.1c3-5.1,7.3-9.2,11.3-13.4
		c15.4-15.7,31.7-30.5,48.7-44.4C138.6,46.3,142.7,43,147.3,40.4z"/>
</g>
<g id="_x23_ff7f00ff">
	<path class="st1" d="M54.8,21.8c26-17.8,59-25.3,90.1-20c28.5,4.4,55.3,19.3,74.2,41.1c18.5,20.8,29.3,48.1,30.9,75.8v12
		c-1.4,32.3-15.9,63.8-39.6,85.8c-21.2,19.9-49.4,31.7-78.4,33.6h-13.5c-16.3-1.2-32.5-5-47.3-12.2c-28-13.3-50.6-37.4-62.1-66.1
		c-10.3-25.5-11.8-54.3-4.2-80.7C12.8,63,30.9,38.1,54.8,21.8 M108.5,6.9c-37.2,4.9-71.2,28.8-88.7,61.9
		C8.5,89.8,3.8,114.4,6.4,138.1c3.1,30.5,18.8,59.4,42.5,78.9c20.9,17.5,47.9,27.4,75.1,27.5c24.5,0.3,49.1-7.2,69.2-21.3
		c22.4-15.5,39.3-38.9,46.7-65.2c7.2-25.2,5.9-52.9-3.9-77.2c-9.6-24.1-27.3-44.9-49.7-58.2C163.2,8.7,135.3,3.1,108.5,6.9z"/>
	<path class="st1" d="M118.3,12.4c27.5-1.8,55.6,7,77.1,24.3c28.5,22.4,45.1,59.2,42.5,95.3c-1.4,27.3-13.5,53.8-32.8,73
		c-18.3,18.4-43.1,30.2-69,32.6c-19.2,2-38.9-1.3-56.6-9.1c-25.4-11.2-46.3-32-57.5-57.4c-8.9-19.7-11.7-41.9-8.4-63.2
		c3.8-25,16.3-48.5,34.9-65.5C67.2,24.6,92.4,13.8,118.3,12.4 M147.3,40.4c-4.6,2.6-8.6,6-12.7,9.2c-17,13.9-33.3,28.7-48.7,44.4
		c-4,4.2-8.3,8.3-11.3,13.4c-0.9,4.4,0.5,8.8,1.1,13.1c4,19.7,9.3,39.2,15,58.5c3.1,9.8,5.9,19.7,10.2,29c0.7,1.1,1.3,3.4,3.1,2.6
		c4.4-1.9,8-5.1,11.8-8c15.8-12.7,30.9-26.4,45.4-40.6c5.6-5.7,11.5-11.2,16.2-17.8c1.7-2.1,1-4.9,0.7-7.4
		c-2.3-14.6-6.1-28.9-9.9-43.2c-4.7-16.8-9.2-33.7-15.8-49.8C151.4,41.8,149.9,38,147.3,40.4z"/>
</g>
</svg>
